data/icons/org.gnome.TextEditor.svg

<?xml version="1.0" encoding="UTF-8"?>
<svg height="128px" viewBox="0 0 128 128" width="128px" xmlns="http://www.w3.org/2000/svg" xmlns:xlink="http://www.w3.org/1999/xlink">
    <linearGradient id="a" gradientTransform="matrix(-1 0 0 -1 135.999985 -173.999998)" gradientUnits="userSpaceOnUse" x1="27.99999" x2="115.999992" y1="-276" y2="-276">
        <stop offset="0" stop-color="#c0bfbc"/>
        <stop offset="0.0454545" stop-color="#ffffff"/>
        <stop offset="0.0909091" stop-color="#deddda"/>
        <stop offset="0.909091" stop-color="#deddda"/>
        <stop offset="0.954545" stop-color="#ffffff"/>
        <stop offset="1" stop-color="#c0bfbc"/>
    </linearGradient>
    <clipPath id="b">
        <path d="m 88 94 h 20 v 20 h -20 z m 0 0"/>
    </clipPath>
    <clipPath id="c">
        <path d="m 108 94 l -20 20 h -5.714844 v -25.714844 h 25.714844 z m 0 0"/>
    </clipPath>
    <linearGradient id="d" gradientTransform="matrix(0 0.178571 0.178571 0 84.428574 42.571447)" gradientUnits="userSpaceOnUse" x1="344" x2="340" y1="76" y2="72">
        <stop offset="0" stop-color="#d5d3cf"/>
        <stop offset="1" stop-color="#ffffff"/>
    </linearGradient>
    <linearGradient id="e" gradientUnits="userSpaceOnUse">
        <stop offset="0" stop-color="#fc9a91"/>
        <stop offset="1" stop-color="#cb2b31"/>
    </linearGradient>
    <linearGradient id="f" gradientTransform="matrix(0.6 0.6 0.707107 -0.707107 295.740141 128.474214)" x1="-253.630356" x2="-230.060135" xlink:href="#e" y1="-56.517502" y2="-56.517502"/>
    <linearGradient id="g" gradientTransform="matrix(0.6 0.6 0.707107 -0.707107 294.325928 129.888428)" x1="-253.630356" x2="-230.060135" xlink:href="#e" y1="-56.517502" y2="-56.517502"/>
    <linearGradient id="h" gradientTransform="matrix(0.390307 -0.130102 0.130102 -0.390307 -2.964383 65.147882)" gradientUnits="userSpaceOnUse" x1="181.677414" x2="143.24614" y1="-139.479385" y2="-101.048103">
        <stop offset="0" stop-color="#d0bb8e"/>
        <stop offset="1" stop-color="#ffffff"/>
    </linearGradient>
    <linearGradient id="i" gradientTransform="matrix(0.6 0.6 0.707107 -0.707107 294.32593 129.888425)" gradientUnits="userSpaceOnUse" x1="-230.060135" x2="-253.630356" y1="-64.517509" y2="-64.517509">
        <stop offset="0" stop-color="#c0bfbc"/>
        <stop offset="0.223152" stop-color="#9a9996"/>
        <stop offset="0.743841" stop-color="#d6d5d2"/>
        <stop offset="1" stop-color="#f6f5f4"/>
    </linearGradient>
    <path d="m 100 120 h -72 c -4.417969 0 -8 -3.582031 -8 -8 v -14.25 c 0 -4.417969 3.582031 -8 8 -8 h 72 c 4.417969 0 8 3.582031 8 8 v 14.25 c 0 4.417969 -3.582031 8 -8 8 z m 0 0" fill="#1a5fb4"/>
    <path d="m 100 118 h -72 c -4.417969 0 -8 -3.582031 -8 -8 v -24 c 0 -4.417969 3.582031 -8 8 -8 h 72 c 4.417969 0 8 3.582031 8 8 v 24 c 0 4.417969 -3.582031 8 -8 8 z m 0 0" fill="url(#a)"/>
    <path d="m 98.875 114 h -69.75 c -5.039062 0 -9.125 -4.085938 -9.125 -9.125 v -87.875 c 0 -5.039062 4.085938 -9.125 9.125 -9.125 h 69.75 c 5.039062 0 9.125 4.085938 9.125 9.125 v 87.875 c 0 5.039062 -4.085938 9.125 -9.125 9.125 z m 0 0" fill="#f6f5f4"/>
    <g clip-path="url(#b)">
        <g clip-path="url(#c)">
            <path d="m 88 102 v 9.714844 c 0 4.417968 3.582031 8 8 8 h 9.714844 c 4.417968 0 8 -3.582032 8 -8 v -9.714844 c 0 -4.417969 -3.582032 -8 -8 -8 h -9.714844 c -4.417969 0 -8 3.582031 -8 8 z m 0 0" fill="url(#d)"/>
        </g>
    </g>
    <path d="m 29.125 9.875 c -5.054688 0 -9.125 4.070312 -9.125 9.125 v 5 h 85.324219 c 0.929687 0 1.828125 -0.140625 2.675781 -0.398438 v -4.601562 c 0 -5.054688 -4.070312 -9.125 -9.125 -9.125 z m 0 0" fill="#1a5fb4"/>
    <path d="m 29.125 7.875 c -5.054688 0 -9.125 4.070312 -9.125 9.125 v 5 h 85.324219 c 0.929687 0 1.828125 -0.140625 2.675781 -0.398438 v -4.601562 c 0 -5.054688 -4.070312 -9.125 -9.125 -9.125 z m 0 0" fill="#3584e4"/>
    <path d="m 48 52 v 6 h -20 v -26 h 72 v 20 z m 0 0" fill="#deddda"/>
    <path d="m 80 76 v 6 h -52 v -18 h 72 v 12 z m 0 0" fill="#deddda"/>
    <path d="m 42.34375 80.34375 l 11.3125 11.3125 l 59.597656 -59.597656 l -11.3125 -11.3125 z m 0 0" fill="#ff881e"/>
    <path d="m 50.777344 88.878906 l 4.242187 4.242188 l 59.597657 -59.597656 l -4.242188 -4.242188 z m 0 0" fill="#e66100"/>
    <path d="m 45.121094 83.222656 l -4.242188 -4.242187 l 59.597656 -59.597657 l 4.242188 4.242188 z m 0 0" fill="#ffb367"/>
    <path d="m 96.527344 23.332031 l 14.140625 14.140625 l 5.65625 -5.65625 l -14.140625 -14.140625 z m 0 0" fill="url(#f)"/>
    <path d="m 116.324219 31.816406 c 3.90625 -3.90625 3.90625 -10.238281 0 -14.140625 c -3.902344 -3.90625 -10.234375 -3.90625 -14.140625 0 c -3.90625 3.902344 -3.90625 10.234375 0 14.140625 s 10.238281 3.90625 14.140625 0 z m 0 0" fill="url(#g)"/>
    <path d="m 38 96 l 17.070312 -2.929688 l -14.140624 -14.140624 z m 0 0" fill="url(#h)"/>
    <path d="m 38 96 l 7.414062 -1.273438 l -6.140624 -6.140624 z m 0 0" fill="#3d3846"/>
    <path d="m 93.699219 26.160156 l 14.140625 14.140625 l 5.65625 -5.65625 l -14.140625 -14.140625 z m 0 0" fill="url(#i)"/>
</svg>

<?xml version="1.0" encoding="UTF-8"?>
<svg xmlns="http://www.w3.org/2000/svg" xmlns:xlink="http://www.w3.org/1999/xlink" width="128px" height="128px" viewBox="0 0 128 128" version="1.1">
<defs>
<linearGradient id="linear0" gradientUnits="userSpaceOnUse" x1="27.99999" y1="-276" x2="115.999992" y2="-276" gradientTransform="matrix(-1,0,0,-1,135.999985,-173.999998)">
<stop offset="0" style="stop-color:rgb(75.294119%,74.901962%,73.725492%);stop-opacity:1;"/>
<stop offset="0.0454545" style="stop-color:rgb(100%,100%,100%);stop-opacity:1;"/>
<stop offset="0.0909091" style="stop-color:rgb(87.058824%,86.666667%,85.490197%);stop-opacity:1;"/>
<stop offset="0.909091" style="stop-color:rgb(87.058824%,86.666667%,85.490197%);stop-opacity:1;"/>
<stop offset="0.954545" style="stop-color:rgb(100%,100%,100%);stop-opacity:1;"/>
<stop offset="1" style="stop-color:rgb(75.294119%,74.901962%,73.725492%);stop-opacity:1;"/>
</linearGradient>
<clipPath id="clip1">
  <path d="M 88 94 L 108 94 L 108 114 L 88 114 Z M 88 94 "/>
</clipPath>
<clipPath id="clip2">
  <path d="M 108 94 L 88 114 L 82.285156 114 L 82.285156 88.285156 L 108 88.285156 Z M 108 94 "/>
</clipPath>
<linearGradient id="linear1" gradientUnits="userSpaceOnUse" x1="344" y1="76" x2="340" y2="72" gradientTransform="matrix(0,0.178571,0.178571,0,84.428574,42.571447)">
<stop offset="0" style="stop-color:rgb(83.529413%,82.745099%,81.176472%);stop-opacity:1;"/>
<stop offset="1" style="stop-color:rgb(100%,100%,100%);stop-opacity:1;"/>
</linearGradient>
<linearGradient id="linear2" gradientUnits="userSpaceOnUse" x1="-253.630356" y1="-56.517502" x2="-230.060135" y2="-56.517502" gradientTransform="matrix(0.6,0.6,0.707107,-0.707107,295.740141,128.474214)">
<stop offset="0" style="stop-color:rgb(98.823529%,80.784315%,79.215688%);stop-opacity:1;"/>
<stop offset="1" style="stop-color:rgb(79.607844%,49.803922%,50.980395%);stop-opacity:1;"/>
</linearGradient>
<linearGradient id="linear3" gradientUnits="userSpaceOnUse" x1="-253.630356" y1="-56.517502" x2="-230.060135" y2="-56.517502" gradientTransform="matrix(0.6,0.6,0.707107,-0.707107,294.325928,129.888428)">
<stop offset="0" style="stop-color:rgb(98.823529%,80.784315%,79.215688%);stop-opacity:1;"/>
<stop offset="1" style="stop-color:rgb(79.607844%,49.803922%,50.980395%);stop-opacity:1;"/>
</linearGradient>
<linearGradient id="linear4" gradientUnits="userSpaceOnUse" x1="181.677414" y1="-139.479385" x2="143.24614" y2="-101.048103" gradientTransform="matrix(0.390307,-0.130102,0.130102,-0.390307,-2.964383,65.147882)">
<stop offset="0" style="stop-color:rgb(81.568629%,73.333335%,55.686277%);stop-opacity:1;"/>
<stop offset="1" style="stop-color:rgb(100%,100%,100%);stop-opacity:1;"/>
</linearGradient>
<linearGradient id="linear5" gradientUnits="userSpaceOnUse" x1="-230.060135" y1="-64.517509" x2="-253.630356" y2="-64.517509" gradientTransform="matrix(0.6,0.6,0.707107,-0.707107,294.32593,129.888425)">
<stop offset="0" style="stop-color:rgb(84.313726%,83.92157%,83.529413%);stop-opacity:1;"/>
<stop offset="0.266667" style="stop-color:rgb(72.941178%,72.549021%,71.372551%);stop-opacity:1;"/>
<stop offset="0.523333" style="stop-color:rgb(83.92157%,83.529413%,82.352942%);stop-opacity:1;"/>
<stop offset="0.857" style="stop-color:rgb(87.058824%,86.666667%,85.490197%);stop-opacity:1;"/>
<stop offset="1" style="stop-color:rgb(75.294119%,74.901962%,73.725492%);stop-opacity:1;"/>
</linearGradient>
</defs>
<g id="surface188048">
<path style=" stroke:none;fill-rule:nonzero;fill:rgb(10.196079%,37.254903%,70.588237%);fill-opacity:1;" d="M 100 120 L 28 120 C 23.582031 120 20 116.417969 20 112 L 20 97.75 C 20 93.332031 23.582031 89.75 28 89.75 L 100 89.75 C 104.417969 89.75 108 93.332031 108 97.75 L 108 112 C 108 116.417969 104.417969 120 100 120 Z M 100 120 "/>
<path style=" stroke:none;fill-rule:nonzero;fill:url(#linear0);" d="M 100 118 L 28 118 C 23.582031 118 20 114.417969 20 110 L 20 86 C 20 81.582031 23.582031 78 28 78 L 100 78 C 104.417969 78 108 81.582031 108 86 L 108 110 C 108 114.417969 104.417969 118 100 118 Z M 100 118 "/>
<path style=" stroke:none;fill-rule:nonzero;fill:rgb(96.470588%,96.078432%,95.686275%);fill-opacity:1;" d="M 98.875 114 L 29.125 114 C 24.085938 114 20 109.914062 20 104.875 L 20 17 C 20 11.960938 24.085938 7.875 29.125 7.875 L 98.875 7.875 C 103.914062 7.875 108 11.960938 108 17 L 108 104.875 C 108 109.914062 103.914062 114 98.875 114 Z M 98.875 114 "/>
<path style=" stroke:none;fill-rule:nonzero;fill:rgb(0%,0%,0%);fill-opacity:0.15748;" d="M 108 17.464844 C 106.613281 17.960938 105.351562 18.753906 104.304688 19.796875 L 95.820312 28.28125 L 43 81.097656 L 43.035156 81.136719 L 41.394531 90.707031 L 40.121094 98.121094 L 47.535156 96.851562 L 57.109375 95.207031 L 57.140625 95.242188 L 57.191406 95.195312 L 108 44.386719 Z M 108 17.464844 "/>
<g clip-path="url(#clip1)" clip-rule="nonzero">
<g clip-path="url(#clip2)" clip-rule="nonzero">
<path style=" stroke:none;fill-rule:nonzero;fill:url(#linear1);" d="M 88 102 L 88 111.714844 C 88 116.132812 91.582031 119.714844 96 119.714844 L 105.714844 119.714844 C 110.132812 119.714844 113.714844 116.132812 113.714844 111.714844 L 113.714844 102 C 113.714844 97.582031 110.132812 94 105.714844 94 L 96 94 C 91.582031 94 88 97.582031 88 102 Z M 88 102 "/>
</g>
</g>
<path style=" stroke:none;fill-rule:nonzero;fill:rgb(10.196079%,37.254903%,70.588237%);fill-opacity:1;" d="M 29.125 9.875 C 24.070312 9.875 20 13.945312 20 19 L 20 24 L 105.324219 24 C 106.253906 24 107.152344 23.859375 108 23.601562 L 108 19 C 108 13.945312 103.929688 9.875 98.875 9.875 Z M 29.125 9.875 "/>
<path style=" stroke:none;fill-rule:nonzero;fill:rgb(20.784314%,51.764709%,89.411765%);fill-opacity:1;" d="M 29.125 7.875 C 24.070312 7.875 20 11.945312 20 17 L 20 22 L 105.324219 22 C 106.253906 22 107.152344 21.859375 108 21.601562 L 108 17 C 108 11.945312 103.929688 7.875 98.875 7.875 Z M 29.125 7.875 "/>
<path style=" stroke:none;fill-rule:nonzero;fill:rgb(96.078432%,76.078433%,6.666667%);fill-opacity:1;" d="M 42.34375 80.34375 L 53.65625 91.65625 L 113.253906 32.058594 L 101.941406 20.746094 Z M 42.34375 80.34375 "/>
<path style=" stroke:none;fill-rule:nonzero;fill:rgb(89.803922%,64.705884%,3.921569%);fill-opacity:1;" d="M 50.777344 88.878906 L 55.019531 93.121094 L 114.617188 33.523438 L 110.375 29.28125 Z M 50.777344 88.878906 "/>
<path style=" stroke:none;fill-rule:nonzero;fill:rgb(97.254902%,89.411765%,36.078432%);fill-opacity:1;" d="M 45.121094 83.222656 L 40.878906 78.980469 L 100.476562 19.382812 L 104.71875 23.625 Z M 45.121094 83.222656 "/>
<path style=" stroke:none;fill-rule:nonzero;fill:url(#linear2);" d="M 96.527344 23.332031 L 110.667969 37.472656 L 116.324219 31.816406 L 102.183594 17.675781 Z M 96.527344 23.332031 "/>
<path style=" stroke:none;fill-rule:nonzero;fill:url(#linear3);" d="M 116.324219 31.816406 C 120.230469 27.910156 120.230469 21.578125 116.324219 17.675781 C 112.421875 13.769531 106.089844 13.769531 102.183594 17.675781 C 98.277344 21.578125 98.277344 27.910156 102.183594 31.816406 C 106.089844 35.722656 112.421875 35.722656 116.324219 31.816406 Z M 116.324219 31.816406 "/>
<path style=" stroke:none;fill-rule:nonzero;fill:url(#linear4);" d="M 38 96 L 55.070312 93.070312 L 40.929688 78.929688 Z M 38 96 "/>
<path style=" stroke:none;fill-rule:nonzero;fill:rgb(23.921569%,21.960784%,27.450982%);fill-opacity:1;" d="M 38 96 L 45.414062 94.726562 L 39.273438 88.585938 Z M 38 96 "/>
<path style=" stroke:none;fill-rule:nonzero;fill:url(#linear5);" d="M 93.699219 26.160156 L 107.839844 40.300781 L 113.496094 34.644531 L 99.355469 20.503906 Z M 93.699219 26.160156 "/>
</g>
</svg>
